Obsidian-SemiLight/actions/24s/games-config-board.svg

<svg viewBox="0 0 24 24" xmlns="http://www.w3.org/2000/svg"><path d="m5 5v16h16v-16zm1 1h2v2h-2zm3 0h2v2h-2zm3 0h2v2h-2zm3 0h2v2h-2zm3 0h2v2h-2zm-12 3h2v2h-2zm3 0h2v2h-2zm3 0h2v2h-2zm3 0h2v2h-2zm3 0h2v2h-2zm-12 3h2v2h-2zm3 0h2v2h-2zm3 0h2v2h-2zm3 0h2v2h-2zm3 0h2v2h-2zm-12 3h2v2h-2zm3 0h2v2h-2zm3 0h2v2h-2zm3 0h2v2h-2zm3 0h2v2h-2zm-12 3h2v2h-2zm3 0h2v2h-2zm3 0h2v2h-2zm3 0h2v2h-2zm3 0h2v2h-2z" fill="#4d4d4d"/></svg>

<svg xmlns="http://www.w3.org/2000/svg" viewBox="0 0 24 24">
  <defs id="defs3051">
    <style type="text/css" id="current-color-scheme">
      .ColorScheme-Text {
        color:#4d4d4d;
      }
      </style>
  </defs>
 <path style="fill:currentColor;fill-opacity:1;stroke:none" 
     d="M 5 5 L 5 21 L 21 21 L 21 5 L 5 5 z M 6 6 L 8 6 L 8 8 L 6 8 L 6 6 z M 9 6 L 11 6 L 11 8 L 9 8 L 9 6 z M 12 6 L 14 6 L 14 8 L 12 8 L 12 6 z M 15 6 L 17 6 L 17 8 L 15 8 L 15 6 z M 18 6 L 20 6 L 20 8 L 18 8 L 18 6 z M 6 9 L 8 9 L 8 11 L 6 11 L 6 9 z M 9 9 L 11 9 L 11 11 L 9 11 L 9 9 z M 12 9 L 14 9 L 14 11 L 12 11 L 12 9 z M 15 9 L 17 9 L 17 11 L 15 11 L 15 9 z M 18 9 L 20 9 L 20 11 L 18 11 L 18 9 z M 6 12 L 8 12 L 8 14 L 6 14 L 6 12 z M 9 12 L 11 12 L 11 14 L 9 14 L 9 12 z M 12 12 L 14 12 L 14 14 L 12 14 L 12 12 z M 15 12 L 17 12 L 17 14 L 15 14 L 15 12 z M 18 12 L 20 12 L 20 14 L 18 14 L 18 12 z M 6 15 L 8 15 L 8 17 L 6 17 L 6 15 z M 9 15 L 11 15 L 11 17 L 9 17 L 9 15 z M 12 15 L 14 15 L 14 17 L 12 17 L 12 15 z M 15 15 L 17 15 L 17 17 L 15 17 L 15 15 z M 18 15 L 20 15 L 20 17 L 18 17 L 18 15 z M 6 18 L 8 18 L 8 20 L 6 20 L 6 18 z M 9 18 L 11 18 L 11 20 L 9 20 L 9 18 z M 12 18 L 14 18 L 14 20 L 12 20 L 12 18 z M 15 18 L 17 18 L 17 20 L 15 20 L 15 18 z M 18 18 L 20 18 L 20 20 L 18 20 L 18 18 z "
     class="ColorScheme-Text"
     />
</svg>
